icons/editor-header-1-filled.svg

<svg width="25" height="24" viewBox="0 0 25 24" fill="none" xmlns="http://www.w3.org/2000/svg">
<g id="header-01">
<path id="Icon" d="M6.38038 20.215V11.9073M6.38038 20.215H3.61115M6.38038 20.215H9.14961M6.38038 11.9073V3.59961M6.38038 11.9073H18.8419M6.38038 3.59961H3.61115M6.38038 3.59961H9.14961M18.8419 11.9073V20.215M18.8419 11.9073V3.59961M18.8419 20.215H16.0727M18.8419 20.215H21.6111M18.8419 3.59961H16.0727M18.8419 3.59961H21.6111" stroke="black" stroke-width="2" stroke-linecap="round" stroke-linejoin="round"/>
</g>
</svg>

<svg xmlns="http://www.w3.org/2000/svg" width="25" height="24" fill="none" viewBox="0 0 25 24"><path stroke="currentColor" stroke-linecap="round" stroke-linejoin="round" stroke-width="2" d="M6.38 20.215v-8.308m0 8.308H3.611m2.77 0H9.15m-2.77-8.308V3.6m0 8.307h12.462M6.38 3.6H3.611m2.77 0H9.15m9.692 8.307v8.308m0-8.308V3.6m0 16.615h-2.77m2.77 0h2.77M18.841 3.6h-2.77m2.77 0h2.77"/></svg>
